packages/match-logos/mono/svg/smartrent.svg

<svg fill="none" height="28" viewBox="0 0 187 28" width="187" xmlns="http://www.w3.org/2000/svg"><path clip-rule="evenodd" d="m29.2366 8.16789v-.00178c-.1955-.3332-.4689-.62186-.8057-.83924l-12.4971-7.059596c-.7207-.3563653-1.5699-.3563653-2.2923 0l-12.49536 7.070286c-.331346.21204-.601133.49535-.798494.8232l-.009054-.00712c-.11226.18709-.188308.38843-.2426273.59513-.0506983.17283-.0851008.35102-.0959647.53454v15.42879l4.70589-2.6638.52147-.2958.01629-.0089-.01629-10.7996 8.41414-4.76106c.7097-.40448 1.5843-.40448 2.2923 0l8.4159 4.76106v10.805l-8.4159-4.7629c-.3531-.1835-.746-.2761-1.1462-.2672-.4001-.0089-.7931.0837-1.1461.2672l-8.39785 4.7575-.01629.0089v.0107l-5.21830673 2.9543 5.21830673 2.9471 8.41414-4.7628c.7116-.4009 1.5825-.4009 2.2923 0l8.4159 4.7628 5.2129-2.9507-5.2129-2.9507v-.0071l5.2201 2.9525-.0072.0053.0144.0072v-.009-15.4377c-.0181-.38487-.1303-.75905-.3331-1.09047-.0018-.00535-.0036-.01248-.0073-.01604zm75.5364 3.45321c-.986.5149-1.917 1.1243-2.779 1.821l-1.249-2.646h-2.0245v16.0364h3.7775v-10.217c.898-.7929 1.895-1.47 2.967-2.017.867-.4918 1.838-.7751 2.836-.8285l-.775-2.9739c-.971.0499-1.916.335-2.753.825zm-12.9964 7.938h-3.6828c-.7152-.0445-1.4178.2103-1.932.7003s-.7931 1.1706-.7677 1.8727c-.0018.5666.2317 1.11.6446 1.5092.4689.4383 1.1045.6664 1.7527.629.7279-.0072 1.4431-.1782 2.0931-.4972.708-.3367 1.3489-.7947 1.8921-1.3542zm2.8645-6.3665c.6066.8589.9252 1.8816.9125 2.9276v10.7248h-2.533l-.5722-1.6179c-.6337.5969-1.3634 1.0887-2.1601 1.454-.7569.3617-1.5862.5523-2.4299.5612-1.8867 0-3.319-.4632-4.2985-1.3916-.9814-.9265-1.4703-2.1613-1.4667-3.7026 0-1.6072.5559-2.8509 1.6695-3.7347 1.1135-.8802 2.5747-1.3257 4.4017-1.3257h3.576c-.0452-2.2237-1.0339-3.3373-2.9676-3.3373-1.6351.0285-3.2465.3937-4.7277 1.0762l-1.0429-3.038c.8456-.474 1.7618-.809 2.7178-.9925.9759-.253 1.9772-.3956 2.9858-.4312 1.195-.0125 2.381.2477 3.4547.7608.9977.4651 1.8523 1.1778 2.4806 2.0669zm-19.9063-2.9275c-1.0176.0267-2.0207.253-2.9496.6628-1.0828.4473-2.0985 1.0371-3.0184 1.7498-.7876-1.609-2.285-2.4126-4.4904-2.4126-1.023.0285-2.0315.253-2.9676.6628-1.0919.4508-2.1149 1.0513-3.0329 1.7854l-.6772-1.9172h-2.5295v16.0275h3.797v-11.2077c1.8143-1.4735 3.3153-2.2094 4.5049-2.2094.8311-.0125 1.4195.2637 1.769.8267.3458.5649.5197 1.3952.5197 2.4964v10.094h3.8132v-10.6464c.0036-.2334-.0091-.4651-.0344-.6949.7297-.5738 1.5083-1.0834 2.3267-1.5235.6283-.3492 1.3362-.5416 2.0587-.5612.8311 0 1.4232.2815 1.7708.8445.3495.5649.5251 1.3952.5251 2.4964v10.094h3.8096v-10.6464c0-1.8745-.4219-3.3284-1.2656-4.3655-.8438-1.037-2.1511-1.5555-3.9291-1.5555zm-24.8802 5.8711c-1.1172-.7127-2.2815-1.3577-3.4819-1.9279-1.3689-.686-2.3738-1.2117-3.0184-1.5769-.5921-.3243-1.1172-.752-1.5517-1.2616-.3875-.4615-.5957-1.0406-.5867-1.63747-.0344-.8036.3947-1.55731 1.1118-1.94931.8745-.47397 1.8686-.70382 2.868-.66284.8366-.01604 1.6731.08909 2.477.31538.8148.25124 1.6097.55949 2.3792.92299l1.2874-2.9418c-.9796-.47396-2.0008-.85528-3.0546-1.13859-1.0465-.294-2.1293-.44367-3.2175-.44902-1.4087-.03207-2.8065.23342-4.1012.78044-1.07.44724-1.9935 1.17957-2.6652 2.11325-1.4486 2.18452-1.1697 5.06217.6753 6.93847 1.0683 1.053 2.6581 2.1043 4.7747 3.1556 1.2675.6183 2.2326 1.1136 2.8971 1.4878.612.3332 1.1624.7591 1.6368 1.2615.411.4295.6392.9925.6428 1.5787.0272.8589-.4255 1.6643-1.1806 2.1008-.7876.4954-1.9192.7448-3.4076.7448-1.0067-.0125-2.0062-.1693-2.9677-.4633-.9397-.2637-1.8541-.6076-2.7304-1.0263l-.8474 2.9756c.583.4206 1.5897.8233 3.0183 1.2081 1.1607.3457 2.3611.5399 3.5725.5791 1.5571.0357 3.107-.2281 4.5592-.7786 1.1606-.4277 2.1692-1.1814 2.897-2.165.6501-.9336.9887-2.0437.9651-3.1752.0236-1.0227-.2625-2.0295-.8238-2.8937-.5613-.8338-1.2838-1.5537-2.1275-2.115zm134.4514 7.7189c-.528.2441-1.102.3795-1.687.3973-.686.0464-1.351-.2459-1.773-.7804-.422-.6058-.628-1.3328-.588-2.0651v-7.6405h4.115l-1.149-2.8385h-2.966v-4.663l-3.777.7252v3.9414h-2.253v2.8385h2.253v8.2641c0 1.7444.516 3.079 1.55 4.0037 1.035.9248 2.462 1.3881 4.282 1.3881.556-.0089 1.108-.0927 1.64-.2495.491-.1229.966-.3189 1.4-.5773zm-66.288.3973c-.688.0464-1.352-.2459-1.774-.7804-.42-.6076-.626-1.3328-.588-2.0651v-7.6405h4.113l-1.146-2.8385h-2.967v-4.663l-3.779.7252v3.9414h-2.253v2.8385h2.253v8.2641c0 1.7444.516 3.079 1.551 4.0037 1.034.9248 2.463 1.3881 4.284 1.3881.554-.0089 1.107-.0927 1.637-.2495.495-.1229.965-.3172 1.4-.5773l-1.047-2.744c-.527.2441-1.101.3795-1.684.3973zm16.032-12.9556c0-1.36668-.427-2.34847-1.287-2.9436-.857-.59513-2.084-.89448-3.681-.89448h-3.003v7.56918h2.945c1.501 0 2.716-.2975 3.644-.8927.926-.5951 1.386-1.5413 1.382-2.8384zm.043 5.7464 5.699 9.7804h-4.102l-4.988-8.8432c-.617.0766-1.238.1087-1.859.098h-2.764v8.763h-3.778v-22.49553h6.844c2.633 0 4.771.56841 6.411 1.70343 1.641 1.1368 2.468 2.82776 2.477 5.0764.035 1.2829-.342 2.5427-1.075 3.6029-.721 1.0156-1.713 1.8174-2.865 2.3146zm17.256.2655c-.199-1.2348-.617-2.1703-1.251-2.81-.668-.6503-1.586-.9925-2.528-.9479-.974-.0392-1.921.3207-2.613.9942-.711.7645-1.144 1.7355-1.236 2.7637h.003zm1.794-4.5954c1.246 1.5645 1.863 3.5619 1.856 5.9941l-.011 1.0798h-11.334c.336 2.8669 2.08 4.3013 5.231 4.3013.795.0125 1.588-.1051 2.344-.3474.85-.303 1.677-.6611 2.479-1.0763l1.145 2.7137c-1.766 1.2188-3.877 1.8656-6.039 1.8514-2.969 0-5.236-.7555-6.795-2.2647-1.561-1.511-2.342-3.5655-2.345-6.1669-.033-1.5271.297-3.038.965-4.4172.608-1.2294 1.568-2.2576 2.763-2.9578 1.298-.7306 2.774-1.0958 4.271-1.0584 2.403 0 4.228.784 5.47 2.3484zm17.938-.7768c.859 1.1154 1.286 2.6424 1.288 4.581v10.315h-3.819v-10.094c0-2.2273-.844-3.3409-2.531-3.3409-1.369 0-2.966.7358-4.787 2.2076v11.2273h-3.778v-16.0364h2.528l.674 1.9172c.938-.7448 1.984-1.347 3.105-1.7854 1.005-.4169 2.08-.6414 3.17-.6628 1.911 0 3.296.5577 4.15 1.6714z" fill="#1f304c" fill-rule="evenodd"/></svg>

<svg width="187" height="28" viewBox="0 0 187 28" fill="none" xmlns="http://www.w3.org/2000/svg">
<g clip-path="url(#clip0)">
<path fill-rule="evenodd" clip-rule="evenodd" d="M29.2366 8.16789V8.16611C29.0411 7.83291 28.7677 7.54425 28.4309 7.32687L15.9338 0.267274C15.2131 -0.0890913 14.3639 -0.0890913 13.6415 0.267274L1.14614 7.33756C0.814794 7.5496 0.545007 7.83291 0.347646 8.16076L0.338592 8.15364C0.226332 8.34073 0.150284 8.54207 0.0959647 8.74877C0.0452664 8.9216 0.0108639 9.09979 0 9.28331V24.7121L4.70589 22.0483L5.22736 21.7525L5.24365 21.7436L5.22736 10.944L13.6415 6.18294C14.3512 5.77846 15.2258 5.77846 15.9338 6.18294L24.3497 10.944V21.749L15.9338 16.9861C15.5807 16.8026 15.1878 16.71 14.7876 16.7189C14.3875 16.71 13.9945 16.8026 13.6415 16.9861L5.24365 21.7436L5.22736 21.7525V21.7632L0.00905327 24.7175L5.22736 27.6646L13.6415 22.9018C14.3531 22.5009 15.224 22.5009 15.9338 22.9018L24.3497 27.6646L29.5626 24.7139L24.3497 21.7632V21.7561L29.5698 24.7086L29.5626 24.7139L29.577 24.7211V24.7121V9.2744C29.5589 8.88953 29.4467 8.51535 29.2439 8.18393C29.2421 8.17858 29.2403 8.17145 29.2366 8.16789ZM104.773 11.6211C103.787 12.136 102.856 12.7454 101.994 13.4421L100.745 10.7961H98.7205V26.8325H102.498V16.6155C103.396 15.8226 104.393 15.1455 105.465 14.5985C106.332 14.1067 107.303 13.8234 108.301 13.77L107.526 10.7961C106.555 10.846 105.61 11.1311 104.773 11.6211ZM91.7766 19.5591H88.0938C87.3786 19.5146 86.676 19.7694 86.1618 20.2594C85.6476 20.7494 85.3687 21.43 85.3941 22.1321C85.3923 22.6987 85.6258 23.2421 86.0387 23.6413C86.5076 24.0796 87.1432 24.3077 87.7914 24.2703C88.5193 24.2631 89.2345 24.0921 89.8845 23.7731C90.5925 23.4364 91.2334 22.9784 91.7766 22.4189V19.5591ZM94.6411 13.1926C95.2477 14.0515 95.5663 15.0742 95.5536 16.1202V26.845H93.0206L92.4484 25.2271C91.8147 25.824 91.085 26.3158 90.2883 26.6811C89.5314 27.0428 88.7021 27.2334 87.8584 27.2423C85.9717 27.2423 84.5394 26.7791 83.5599 25.8507C82.5785 24.9242 82.0896 23.6894 82.0932 22.1481C82.0932 20.5409 82.6491 19.2972 83.7627 18.4134C84.8762 17.5332 86.3374 17.0877 88.1644 17.0877H91.7404C91.6952 14.864 90.7065 13.7504 88.7728 13.7504C87.1377 13.7789 85.5263 14.1441 84.0451 14.8266L83.0022 11.7886C83.8478 11.3146 84.764 10.9796 85.72 10.7961C86.6959 10.5431 87.6972 10.4005 88.7058 10.3649C89.9008 10.3524 91.0868 10.6126 92.1605 11.1257C93.1582 11.5908 94.0128 12.3035 94.6411 13.1926ZM74.7348 10.2651C73.7172 10.2918 72.7141 10.5181 71.7852 10.9279C70.7024 11.3752 69.6867 11.965 68.7668 12.6777C67.9792 11.0687 66.4818 10.2651 64.2764 10.2651C63.2534 10.2936 62.2449 10.5181 61.3088 10.9279C60.2169 11.3787 59.1939 11.9792 58.2759 12.7133L57.5987 10.7961H55.0692V26.8236H58.8662V15.6159C60.6805 14.1424 62.1815 13.4065 63.3711 13.4065C64.2022 13.394 64.7906 13.6702 65.1401 14.2332C65.4859 14.7981 65.6598 15.6284 65.6598 16.7296V26.8236H69.473V16.1772C69.4766 15.9438 69.4639 15.7121 69.4386 15.4823C70.1683 14.9085 70.9469 14.3989 71.7653 13.9588C72.3936 13.6096 73.1015 13.4172 73.824 13.3976C74.6551 13.3976 75.2472 13.6791 75.5948 14.2421C75.9443 14.807 76.1199 15.6373 76.1199 16.7385V26.8325H79.9295V16.1861C79.9295 14.3116 79.5076 12.8577 78.6639 11.8206C77.8201 10.7836 76.5128 10.2651 74.7348 10.2651ZM49.8546 16.1362C48.7374 15.4235 47.5731 14.7785 46.3727 14.2083C45.0038 13.5223 43.9989 12.9966 43.3543 12.6314C42.7622 12.3071 42.2371 11.8794 41.8026 11.3698C41.4151 10.9083 41.2069 10.3292 41.2159 9.73233C41.1815 8.92873 41.6106 8.17502 42.3277 7.78302C43.2022 7.30905 44.1963 7.0792 45.1957 7.12018C46.0323 7.10414 46.8688 7.20927 47.6727 7.43556C48.4875 7.6868 49.2824 7.99505 50.0519 8.35855L51.3393 5.41675C50.3597 4.94279 49.3385 4.56147 48.2847 4.27816C47.2382 3.98416 46.1554 3.83449 45.0672 3.82914C43.6585 3.79707 42.2607 4.06256 40.966 4.60958C39.896 5.05682 38.9725 5.78915 38.3008 6.72283C36.8522 8.90735 37.1311 11.785 38.9761 13.6613C40.0444 14.7143 41.6342 15.7656 43.7508 16.8169C45.0183 17.4352 45.9834 17.9305 46.6479 18.3047C47.2599 18.6379 47.8103 19.0638 48.2847 19.5662C48.6957 19.9957 48.9239 20.5587 48.9275 21.1449C48.9547 22.0038 48.502 22.8092 47.7469 23.2457C46.9593 23.7411 45.8277 23.9905 44.3393 23.9905C43.3326 23.978 42.3331 23.8212 41.3716 23.5272C40.4319 23.2635 39.5175 22.9196 38.6412 22.5009L37.7938 25.4765C38.3768 25.8971 39.3835 26.2998 40.8121 26.6846C41.9728 27.0303 43.1732 27.2245 44.3846 27.2637C45.9417 27.2994 47.4916 27.0356 48.9438 26.4851C50.1044 26.0574 51.113 25.3037 51.8408 24.3201C52.4909 23.3865 52.8295 22.2764 52.8059 21.1449C52.8295 20.1222 52.5434 19.1154 51.9821 18.2512C51.4208 17.4174 50.6983 16.6975 49.8546 16.1362ZM184.306 23.8551C183.778 24.0992 183.204 24.2346 182.619 24.2524C181.933 24.2988 181.268 24.0065 180.846 23.472C180.424 22.8662 180.218 22.1392 180.258 21.4069V13.7664H184.373L183.224 10.9279H180.258V6.2649L176.481 6.9901V10.9315H174.228V13.77H176.481V22.0341C176.481 23.7785 176.997 25.1131 178.031 26.0378C179.066 26.9626 180.493 27.4259 182.313 27.4259C182.869 27.417 183.421 27.3332 183.953 27.1764C184.444 27.0535 184.919 26.8575 185.353 26.5991L184.306 23.8551ZM118.018 24.2524C117.33 24.2988 116.666 24.0065 116.244 23.472C115.824 22.8644 115.618 22.1392 115.656 21.4069V13.7664H119.769L118.623 10.9279H115.656V6.2649L111.877 6.9901V10.9315H109.624V13.77H111.877V22.0341C111.877 23.7785 112.393 25.1131 113.428 26.0378C114.462 26.9626 115.891 27.4259 117.712 27.4259C118.266 27.417 118.819 27.3332 119.349 27.1764C119.844 27.0535 120.314 26.8592 120.749 26.5991L119.702 23.8551C119.175 24.0992 118.601 24.2346 118.018 24.2524ZM134.05 11.2968C134.05 9.93012 133.623 8.94833 132.763 8.3532C131.906 7.75807 130.679 7.45872 129.082 7.45872H126.079V15.0279H129.024C130.525 15.0279 131.74 14.7304 132.668 14.1352C133.594 13.5401 134.054 12.5939 134.05 11.2968ZM134.093 17.0432L139.792 26.8236H135.69L130.702 17.9804C130.085 18.057 129.464 18.0891 128.843 18.0784H126.079V26.8414H122.301V4.34587H129.145C131.778 4.34587 133.916 4.91428 135.556 6.0493C137.197 7.1861 138.024 8.87706 138.033 11.1257C138.068 12.4086 137.691 13.6684 136.958 14.7286C136.237 15.7442 135.245 16.546 134.093 17.0432ZM151.349 17.3087C151.15 16.0739 150.732 15.1384 150.098 14.4987C149.43 13.8484 148.512 13.5062 147.57 13.5508C146.596 13.5116 145.649 13.8715 144.957 14.545C144.246 15.3095 143.813 16.2805 143.721 17.3087H143.724H151.349ZM153.143 12.7133C154.389 14.2778 155.006 16.2752 154.999 18.7074L154.988 19.7872H143.654C143.99 22.6541 145.734 24.0885 148.885 24.0885C149.68 24.101 150.473 23.9834 151.229 23.7411C152.079 23.4381 152.906 23.08 153.708 22.6648L154.853 25.3785C153.087 26.5973 150.976 27.2441 148.814 27.2299C145.845 27.2299 143.578 26.4744 142.019 24.9652C140.458 23.4542 139.677 21.3997 139.674 18.7983C139.641 17.2712 139.971 15.7603 140.639 14.3811C141.247 13.1517 142.207 12.1235 143.402 11.4233C144.7 10.6927 146.176 10.3275 147.673 10.3649C150.076 10.3649 151.901 11.1489 153.143 12.7133ZM171.081 11.9365C171.94 13.0519 172.367 14.5789 172.369 16.5175V26.8325H168.55V16.7385C168.55 14.5112 167.706 13.3976 166.019 13.3976C164.65 13.3976 163.053 14.1334 161.232 15.6052V26.8325H157.454V10.7961H159.982L160.656 12.7133C161.594 11.9685 162.64 11.3663 163.761 10.9279C164.766 10.511 165.841 10.2865 166.931 10.2651C168.842 10.2651 170.227 10.8228 171.081 11.9365Z" fill="#1F304C"/>
</g>
<defs>
<clipPath id="clip0">
<rect width="186.667" height="28" fill="white"/>
</clipPath>
</defs>
</svg>
